X:1
T:Qui manducat meam carnem
T:Qui manducat meam carnem
T:Claudio Merulo
C:Claudio Merulo
%%score [ 1 2 3 4 ]
L:1/8
Q:1/4=192
M:4/2
K:F
V:1 treble-8 nm="Tenor 1"
V:2 treble-8 nm="Tenor 2"
V:3 bass nm="Bass 1"
V:4 bass nm="Bass 2"
V:1
 z16 | z16 | z16 | z16 | z16 | c12 d4 | (e8 f8- | f4) e4 d8 | c8 (d6 e2 | f2 g2 f8 e4) | f4 d8 c4 | %11
w: |||||Qui man-|du- *|* cat me-|am car- *||nem, qui man-|
 f4 f4 d8 | c4 (f8 e2 d2 | g2 f2 f8 e4) | f8 z8 | z16 | F12 G2 x2 | (A8 B8-) | B4 A4 G8 | %19
w: du- cat me-|am car- * *||nem,||qui man-|du- *|* cat me-|
 A4 (F2 G2 A2 B2 c2 A2 | d2 c2 c8 =B4) | c8 z8 | z4 c4 f8- | f4 e4 d8 | c4 (f6 e2 e2 dc | %25
w: am car- * * * * *||nem,|et bi-|* bit me-|um san- * * * *|
 d6 cB c2 A2 d4- | d2 c2 c8) =B4 | c8 z4 F4 | B12 A4 | (G6 FG A4) F4 | z4 c4 f8- | f4 e4 d8 | %32
w: |* * * gui-|nem, et|bi- bit|me- * * * um|et bi-|* bit me-|
 c4 (d8 c4- | c4) =B4 c8 | z4 c4 c8 | z4 f4 f8- | f8 f8 | e8 z4 c4 | d8 f8 | e8 z4 c4 | d8 d4 d4 | %41
w: um san- *|* gui- nem,|in me|in me|* ma-|net in|me ma-|net et|e- go in|
 c16 | c8 z4 c4 | d8 f8 | e8 z4 c4 | d8 d4 d4 | c16 | c16 |] %48
w: e-|o, in|me ma-|net et|e- go in|e-|o.|
V:2
 z16 | z16 | z16 | z16 | z16 | z16 | z16 | F12 G4 | (A8 B8- | B4) A4 G8 | F8 (A6 B2 | %11
w: |||||||Qui man-|du- *|* cat me-|am car- *|
 c2 d2 c6 BA G2 AB | c8) d8- | d8 z8 | z4 B8 c4 | (d8 _e8- | e4) d4 c8 | c4 (F8 G4- | %18
w: |* nem,||qui man-|du- *|* cat me-|am car- *|
 G2 F2 F8 E4) | F4 C4 F8- | F4 E4 D8 | C4 (c6 B2 B2 AG | A4) G4 F8 | z16 | z4 F4 c8- | c4 B4 A8 | %26
w: |nem, et bi-|* bit me-|um san- * * * *|* gui- nem,||et bi-|* bit me-|
 G8 (A4 G2 F2 | A4 G6 F2 F4- | F4) E4 F4 z2 F2 | c12 B4 | A4 G4 A8- | A4 G4 F8 | z4 F4 F4 E4 | %33
w: um san- * *||* gui- nem, et|bi- bit|me- um san-|* gui- nem,|et bi- bit|
 F4 F4 G6 G2 | A8 z4 c4 | c8 z4 A4 | A8 B8 | G8 z4 F4 | F8 F8 | G8 z4 F4- | F4 B8 B4 | A8 G8 | %42
w: me- um san- gui-|nem, in|me in|me ma-|net in|me ma-|net et|* e- go|in e-|
 A8 z4 A4 | B8 A8 | c4 G4 (c2 B2 A2 G2 | F2 D2) G8 G4 | (E4 F8) E4 | F16 |] %48
w: o, in|me ma-|net et e- * * *|* * * go|in * e-|o.|
V:3
 C,12 D,4 | E,8 F,8- | F,4 E,4 D,8 | C,8 (D,6 E,2 | F,2 G,2 F,8 E,4) | F,8 A,8- | A,4 A,4 D,8 | %7
w: Qui man-|du- *|* cat me-|am car- *||nem, qui|_ man- du-|
 A,8 (D,6 E,2 | F,2 E,2 F,6 D,2 D4- | D4) D4 C8 | A,8 z8 | z4 F,8 G,4 | (A,8 B,8- | B,4) A,4 G,8 | %14
w: cat me- *||* am car-|nem,|qui man-|du- *|* cat me-|
 F,8 (G,6 A,2 | B,2 F,2 B,8 A,4) | B,8 z4 G,4 | C4 D8 D4 | D4 C4 C8 | C16 | z16 | z4 z8 F,4 | %22
w: am car- *||nem, qui|man- du- cat|me- am car-|nem,||et|
 C12 B,4 | A,4 G,4 (G,2 A,2 B,2 G,2 | A,6) A,2 G,8 | z16 | z4 C,4 F,8- | F,4 E,4 D,8 | %28
w: bi- bit|me- um san- * * *|* gui- nem,||et bi-|* bit me-|
 G,8 C,4 F,4- | F,4 E,4 D,8 | C,8 z4 F,4 | C12 B,4 | A,8 G,4 (A,4- | A,2 G,2 F,8) E,4 | %34
w: um et bi-|* bit me-|um et|bi- bit|me- um san-|* * * gui-|
 F,8 z4 A,4 | A,8 z4 C4 | D8 D8 | C4 G,4 A,8 | (B,8 A,8) | C4 G,4 (C2 B,2 A,2 G,2 | %40
w: nem, in|me in|me ma-|net in me|ma- *|net et e- * * *|
 A,2 F,2 G,8) G,4 | E,4 F,8 E,4 | F,4 C,4 F,8- | F,8 F,8 | G,8 z4 F,4- | F,4 B,8 B,4 | A,8 G,8 | %47
w: * * * go|in e- *|o, in me|* ma-|net et|* e- go|in e-|
 A,16 |] %48
w: o.|
V:4
 z16 | z16 | F,,12 G,,4 | A,,8 B,,8- | B,,4 A,,4 G,,8 | F,,4 (F,8 E,2 D,2 | %6
w: ||Qui man-|du- *|* cat me-|am car- * *|
 C,2 A,,2 A,6 G,2 F,2 E,2 | D,4) C,4 B,,4 B,,4 | A,,4 F,,4 B,,8 | B,,8 C,8 | (D,6 E,2) F,8- | %11
w: |* nem, qui man-|du- cat me-|am car-|nem, _ _|
 F,8 z8 | z16 | B,,12 C,4 | (D,8 _E,8) | D,8 C,8 | B,,8 F,4 E,4 | (F,2 E,2 D,2 C,2 B,,4) G,,4 | %18
w: _||qui man-|du- *|cat me-|am qui man-|du- * * * * cat|
 B,,4 F,,4 C,8 | F,,16 | z4 C,4 F,8- | F,4 E,4 D,8 | C,8 D,6 D,2 | C,8 z8 | z8 C,8 | G,12 F,4 | %26
w: me- am car-|nem,|et bi-|* bit me-|um san- gui-|nem,|et|bi- bit|
 E,8 D,8 | (C,8 B,,6 A,,2 | G,,4) G,,4 F,,8 | z4 C,4 F,8- | F,4 E,4 D,8 | C,4 C,4 (D,6 E,2 | %32
w: me- um|san- * *|* gui- nem,|et bi-|* bit me-|um et bi- *|
 F,2 E,2 D,2 C,2 B,,4) C,4 | D,4 D,4 C,6 C,2 | F,,8 z4 F,4 | F,8 z4 F,4 | D,8 B,,8 | C,8 z4 F,,4 | %38
w: * * * * * bit|me- um san- gui-|nem, in|me in|me ma-|net in|
 B,,8 D,8 | C,8 z4 F,,4 | B,,8 G,,4 G,,4 | (A,,6 B,,2 C,8) | F,,8 z4 F,,4 | B,,8 D,8 | %44
w: me ma-|net et|e- go in|e- * *|o, in|me ma-|
 C,8 z4 F,,4 | B,,8 G,,4 G,,4 | (A,,6 B,,2 C,8) | F,,16 |] %48
w: net et|e- go in|e- * *|o.|

